X:1
T:Robinson, 87.87 D
T:Thomas Hastings (1787-1872)
T:Robinson, 87.87 D
T:Public Domain
C:Thomas Hastings (1787-1872)
Z:Public Domain
%%score ( 1 2 ) ( 3 4 )
L:1/8
M:3/4
K:Eb
V:1 treble 
V:2 treble 
V:3 bass 
V:4 bass 
V:1
 [EB]4 [DB]2 | [EB]4 [Ec]2 | [EB]4 [EG]2 | [EG]2 [DF]2 z2 | [FA]4 [FA]2 | (A2 G2) [CF]2 | %6
 [B,E]4 [B,D]2 | [B,E]6 | [EB]4 [DB]2 | [EB]4 [Ec]2 | [EB]4 [EG]2 | [EG]2 [DF]2 z2 | [FA]4 [FA]2 | %13
 (A2 G2) [CF]2 | [B,E]4 [B,D]2 | [B,E]6 | [Ee]4 [Ge]2 | (d3 c) [FB]2 | ([Gc]2 [FB]2) [E=A]2 | %19
 ([DB]3 [Ec]) [Fd]2 | [Ee]4 [Ge]2 | (d3 c) [FB]2 | [Gc]2 [FB]2 [E=A]2 | [DB]6 | [EB]4 [DB]2 | %25
 [EB]4 [Ec]2 | [EB]4 [EG]2 | [EG]2 [DF]2 z2 | [FA]4 [FA]2 | (A2 G2) [CF]2 | [B,E]4 [B,D]2 | %31
 [B,E]6 |] %32
V:2
 x6 | x6 | x6 | x6 | x6 | E4 x2 | x6 | x6 | x6 | x6 | x6 | x6 | x6 | E4 x2 | x6 | x6 | x6 | F4 x2 | %18
 x6 | x6 | x6 | F4 x2 | x6 | x6 | x6 | x6 | x6 | x6 | x6 | E4 x2 | x6 | x6 |] %32
V:3
 [E,G,]4 [B,,F,]2 | [E,G,]4 A,2 | [G,B,]4 [E,B,]2 | [B,,B,]2 [B,,B,]2 z2 | [B,,D]4 (B,,=B,,) | %5
 [C,E]4 [A,,A,]2 | [B,,G,]4 [B,,F,]2 | [E,G,]6 | [E,G,]4 [B,,F,]2 | [E,G,]4 A,2 | [G,B,]4 [E,B,]2 | %11
 [B,,B,]2 [B,,B,]2 z2 | [B,,D]4 (B,,=B,,) | [C,E]4 [A,,A,]2 | [B,,G,]4 [B,,F,]2 | [E,G,]6 | %16
 [G,B,]4 [E,B,]2 | B,4 [D,B,]2 | ([E,E]2 [F,D]2) [F,C]2 | B,4 [A,B,]2 | [G,B,]4 [E,B,]2 | %21
 B,4 [D,B,]2 | [E,E]2 [F,D]2 [F,C]2 | [B,,B,]6 | [E,G,]4 [B,,F,]2 | [E,G,]4 A,2 | [G,B,]4 [E,B,]2 | %27
 [B,,B,]2 [B,,B,]2 z2 | [B,,D]4 (B,,=B,,) | [C,E]4 [A,,A,]2 | [B,,G,]4 [B,,F,]2 | [E,G,]6 |] %32
V:4
 x6 | x4 A,2 | x6 | x6 | x4 D2 | x6 | x6 | x6 | x6 | x4 A,2 | x6 | x6 | x4 D2 | x6 | x6 | x6 | x6 | %17
 B,4 x2 | x6 | B,4 x2 | x6 | B,4 x2 | x6 | x6 | x6 | x4 A,2 | x6 | x6 | x4 D2 | x6 | x6 | x6 |] %32

